X: 662
T: Jian lantan
%%abc-version 2.0
%%abcx-abcm2ps-target-version 5.9.1 (29 Sep 2008)
%%abc-creator hum2abc beta
%%abcx-conversion-date 2013/10/02 07:52:30
%%abc-edited-by Helmut Schaffrath
%%humdrum-veritas 1182600088
%%humdrum-veritas-data 174038912
%%continueall 1
%%barnumbers 0
L: 1/16
M: 2/4
K: F
d2 d e d2 c d [I:setbarnb 1]| 
f2 e d c2 A2 | 
c2 A c d e d c | 
A G F DG4 | 
c2 c A A f e d | 
d A c d F2 E D | 
c2 c A c A G F | 
G D2 ED4 |]  



